X:167
T:Voulez Vous Dansez Mademoiselle. RH.167
T:Oats,Beans & Barley Grow,aka. RH.167
R:Jig
S:Rev.R.Harrison’s MS,c1815,Cumbria
O:England
A:Temple Sowerby,Cumbria
Z:vmp.Simon Wilson. Review PJH, 2008.
M:6/8
L:1/8
Q:3/8=120
K:C
(G|e2)ee2e|{f}d^cd=c2c|\
B2c{Bc}d2B|c2d({cd}e2)c|!
e2ee2e|{e}(d^cd) =cde|f2e (dec)|{c}BABc2||!
d|d2(dB2)G|(cde)d2d|d2(dB2)(G|cde)d2d|!
d2(dB2)(G|cded2)(d|g2)g {a}(g^fg)|{e}(fe).e (ed).d|!
(dc).c B(dc|B2AG2)”Octave —–“(G|\
e2)ee2e|{e}(d^cd =c2)(c|!
B2)c{Bc}d2B|c2d({cd})e2(c|e2)ee2e|!
{e}(d^cd =cde)|(f2e dec)|{c}BABc2|]

